alternatives/kde-colorscheme/96/places/folder-download.svg

<?xml version="1.0" encoding="UTF-8" standalone="no"?>
<!-- Created with Inkscape (http://www.inkscape.org/) -->

<svg
   width="96"
   height="96"
   viewBox="0 0 96 96"
   version="1.1"
   id="svg5"
   inkscape:version="1.2.2 (1:1.2.2+202305151914+b0a8486541)"
   sodipodi:docname="folder-download.svg"
   xmlns:inkscape="http://www.inkscape.org/namespaces/inkscape"
   xmlns:sodipodi="http://sodipodi.sourceforge.net/DTD/sodipodi-0.dtd"
   xmlns="http://www.w3.org/2000/svg"
   xmlns:svg="http://www.w3.org/2000/svg">
  <sodipodi:namedview
     id="namedview7"
     pagecolor="#ffffff"
     bordercolor="#000000"
     borderopacity="0.25"
     inkscape:showpageshadow="2"
     inkscape:pageopacity="0.0"
     inkscape:pagecheckerboard="0"
     inkscape:deskcolor="#d1d1d1"
     inkscape:document-units="px"
     showgrid="false"
     inkscape:zoom="8.3958333"
     inkscape:cx="47.940447"
     inkscape:cy="48"
     inkscape:window-width="1920"
     inkscape:window-height="1008"
     inkscape:window-x="0"
     inkscape:window-y="0"
     inkscape:window-maximized="1"
     inkscape:current-layer="svg5" />
  <defs
     id="defs2">
    <style
       id="current-color-scheme"
       type="text/css">
         .ColorScheme-Text { color:#232629; }
         .ColorScheme-Highlight { color:#3daee9; }
     </style>
  </defs>
  <path
     d="m 12,13 c -3.323997,0 -6,2.676004 -6,6 v 60 c 0,3.323996 2.676003,6 6,6 h 72 c 3.323996,0 6,-2.676004 6,-6 V 29 c 0,-3.323996 -2.676004,-6 -6,-6 H 48 l -6,-7 c -1.6357,-1.836774 -2.676004,-3 -6,-3 z"
     style="opacity:0.3;fill:#000000;stroke-width:3"
     id="path1016"
     sodipodi:nodetypes="ssssssssccss" />
  <path
     id="rect184"
     style="fill:currentColor;fill-opacity:1;stroke-width:4"
     class="ColorScheme-Highlight"
     d="m 12,12 c -3.3239968,0 -6,2.676002 -6,6 v 60 c 0,3.323996 2.6760032,6 6,6 h 72 c 3.323996,0 6,-2.676004 6,-6 V 28 c 0,-3.323996 -2.676004,-6 -6,-6 H 48 l -6,-7 c -1.672966,-2.152788 -2.676004,-3 -6,-3 z"
     sodipodi:nodetypes="sccsssssccss" />
  <path
     id="path1511"
     style="opacity:0.4;fill:#000000;fill-opacity:1;stroke-width:2"
     d="m 12,12 c -3.3239928,0 -6,2.676006 -6,6 v 20 c 0,-3.3137 2.6863016,-6 6,-6 h 24 c 3.323988,0 3.999586,-1.158076 6,-3 l 6,-7 -6,-7 c -1.672964,-2.152786 -2.676008,-3 -6,-3 z" />
  <path
     id="path3081"
     style="opacity:0.2;fill:#ffffff;stroke-width:3"
     d="m 48,22 -6,7 c -2.000414,1.841926 -2.67601,3 -6,3 H 12 c -3.3136986,0 -6,2.6863 -6,6 v 1 c 0,-3.3137 2.6863014,-6 6,-6 h 24 c 3.32399,0 3.999586,-1.158074 6,-3 l 6,-7 h 36 c 3.323984,0 6,2.676016 6,6 v -1 c 0,-3.323984 -2.676016,-6 -6,-6 z"
     sodipodi:nodetypes="ccssscssccscssc" />
  <path
     id="rect6657"
     style="opacity:0.6;fill:currentColor;stroke-width:6;stroke-linecap:round;stroke-linejoin:round"
     d="m 48.000242,40 c -0.554,0 -1,0.446 -1,1 V 68.171874 L 38.809516,59.98097 c -0.391754,-0.39172 -1.022326,-0.391738 -1.414064,0 -0.19586,0.19586 -0.292966,0.451414 -0.292968,0.707034 -2e-6,0.255616 0.0971,0.511168 0.292968,0.70703 L 48.000242,72 58.609032,61.395034 c 0.391732,-0.391738 0.391732,-1.022326 0,-1.414066 -0.391738,-0.391736 -1.022332,-0.391742 -1.414064,0 l -8.194726,8.190906 V 41 c 0,-0.554 -0.446004,-1 -1,-1 z M 36.11328,74 C 35.496732,74 35,74.445998 35,75 c 0,0.553998 0.496732,1 1.11328,1 H 59.886718 C 60.503268,76 61,75.553998 61,75 61,74.445998 60.503268,74 59.886718,74 Z"
     class="ColorScheme-Text" />
</svg>

<?xml version="1.0" encoding="UTF-8" standalone="no"?>
<!-- Created with Inkscape (http://www.inkscape.org/) -->

<svg
   width="96"
   height="96"
   viewBox="0 0 96 96"
   version="1.1"
   id="svg5"
   inkscape:version="1.2.2 (b0a8486541, 2022-12-01)"
   sodipodi:docname="folder-download.svg"
   xmlns:inkscape="http://www.inkscape.org/namespaces/inkscape"
   xmlns:sodipodi="http://sodipodi.sourceforge.net/DTD/sodipodi-0.dtd"
   xmlns="http://www.w3.org/2000/svg"
   xmlns:svg="http://www.w3.org/2000/svg">
  <sodipodi:namedview
     id="namedview7"
     pagecolor="#ffffff"
     bordercolor="#000000"
     borderopacity="0.25"
     inkscape:showpageshadow="2"
     inkscape:pageopacity="0.0"
     inkscape:pagecheckerboard="0"
     inkscape:deskcolor="#d1d1d1"
     inkscape:document-units="px"
     showgrid="false"
     inkscape:zoom="8.3645833"
     inkscape:cx="48"
     inkscape:cy="48"
     inkscape:window-width="1920"
     inkscape:window-height="1000"
     inkscape:window-x="0"
     inkscape:window-y="0"
     inkscape:window-maximized="1"
     inkscape:current-layer="svg5" />
  <defs
     id="defs2">
    <style
       id="current-color-scheme"
       type="text/css">
         .ColorScheme-Highlight { color:#3daee9; }
     </style>
  </defs>
  <path
     d="m 12,13 c -3.323997,0 -6,2.676004 -6,6 v 60 c 0,3.323996 2.676003,6 6,6 h 72 c 3.323996,0 6,-2.676004 6,-6 V 29 c 0,-3.323996 -2.676004,-6 -6,-6 H 48 l -6,-7 c -1.6357,-1.836774 -2.676004,-3 -6,-3 z"
     style="opacity:0.3;fill:#000000;stroke-width:3"
     id="path1016"
     sodipodi:nodetypes="ssssssssccss" />
  <path
     id="rect184"
     style="fill:currentColor;fill-opacity:1;stroke-width:4"
     class="ColorScheme-Highlight"
     d="m 12,12 c -3.3239968,0 -6,2.676002 -6,6 v 60 c 0,3.323996 2.6760032,6 6,6 h 72 c 3.323996,0 6,-2.676004 6,-6 V 28 c 0,-3.323996 -2.676004,-6 -6,-6 H 48 l -6,-7 c -1.672966,-2.152788 -2.676004,-3 -6,-3 z"
     sodipodi:nodetypes="sccsssssccss" />
  <path
     id="path1511"
     style="opacity:0.4;fill:#000000;fill-opacity:1;stroke-width:2"
     d="M 12 12 C 8.6760073 12 6 14.676005 6 18 L 6 38 C 6 34.6863 8.6863016 32 12 32 L 36 32 C 39.323988 32 39.999586 30.841924 42 29 L 48 22 L 42 15 C 40.327036 12.847214 39.323993 12 36 12 L 12 12 z " />
  <path
     id="path3081"
     style="opacity:0.2;fill:#ffffff;stroke-width:3"
     d="m 48,22 -6,7 c -2.000414,1.841926 -2.67601,3 -6,3 H 12 c -3.3136986,0 -6,2.6863 -6,6 v 1 c 0,-3.3137 2.6863014,-6 6,-6 h 24 c 3.32399,0 3.999586,-1.158074 6,-3 l 6,-7 h 36 c 3.323984,0 6,2.676016 6,6 v -1 c 0,-3.323984 -2.676016,-6 -6,-6 z"
     sodipodi:nodetypes="ccssscssccscssc" />
  <path
     id="rect6657"
     style="opacity:0.6;fill:#ffffff;stroke-width:6;stroke-linecap:round;stroke-linejoin:round"
     d="m 48.000242,40 c -0.554,0 -1,0.446 -1,1 v 27.171874 l -8.190726,-8.190906 c -0.391754,-0.39172 -1.022326,-0.391738 -1.414064,0 -0.19586,0.19586 -0.292966,0.451414 -0.292968,0.707034 -2e-6,0.255616 0.0971,0.511168 0.292968,0.70703 L 48.000242,72 58.609032,61.395032 c 0.391732,-0.391738 0.391732,-1.022326 0,-1.414064 -0.391738,-0.391738 -1.022332,-0.391742 -1.414064,0 l -8.194726,8.190906 V 41 c 0,-0.554 -0.446004,-1 -1,-1 z M 36.11328,74 C 35.496732,74 35,74.445998 35,75 c 0,0.553998 0.496732,1 1.11328,1 H 59.886718 C 60.503268,76 61,75.553998 61,75 61,74.445998 60.503268,74 59.886718,74 Z"
     sodipodi:nodetypes="ssccsscccsccsssssssss" />
</svg>
